build/img/contacts.svg

<svg xmlns="http://www.w3.org/2000/svg" width="25" height="21"><path fill-rule="evenodd" fill="#D3D3D0" d="M24.26 13.119c-.716.967-1.786 1.493-2.815 1.493a2.75 2.75 0 01-1.656-.536c-1.338-.992-1.513-3.036-.391-4.557 1.124-1.52 3.129-1.95 4.47-.958 1.339.993 1.514 3.037.392 4.558zm-6.908-3.942c-.303 0-.608-.047-.907-.146h-.001c-1.693-.564-2.551-2.591-1.911-4.519.303-.914.897-1.676 1.672-2.146.811-.491 1.72-.608 2.562-.328.841.28 1.5.919 1.855 1.798.34.841.36 1.807.057 2.721-.527 1.587-1.909 2.62-3.327 2.62zm-6.996-1.134c-1.943 0-3.525-1.804-3.525-4.021C6.831 1.804 8.413 0 10.356 0c1.944 0 3.526 1.804 3.526 4.022 0 2.217-1.582 4.021-3.526 4.021zM6.963 9.468c-.294.837-.882 1.461-1.656 1.759-.316.122-.643.18-.969.18-1.277 0-2.54-.888-3.082-2.294-.678-1.767.035-3.691 1.59-4.29.773-.298 1.628-.229 2.406.194.74.404 1.325 1.085 1.646 1.921.322.836.345 1.734.065 2.53zm.245 1.764a5.82 5.82 0 014.92-2.694 5.818 5.818 0 014.92 2.694l2.603 4.064c.431.675.631 1.454.576 2.253a3.68 3.68 0 01-.879 2.153 3.703 3.703 0 01-2.816 1.297 3.67 3.67 0 01-1.484-.314 7.263 7.263 0 00-5.79-.022l-.049.022a3.67 3.67 0 01-2.313.22 3.676 3.676 0 01-1.988-1.203 3.684 3.684 0 01-.878-2.153 3.681 3.681 0 01.576-2.253l2.602-4.064z"/></svg>

<svg 
 xmlns="http://www.w3.org/2000/svg"
 xmlns:xlink="http://www.w3.org/1999/xlink"
 width="25px" height="21px">
<path fill-rule="evenodd"  fill="rgb(211, 211, 208)"
 d="M24.260,13.119 C23.544,14.086 22.474,14.612 21.445,14.612 C20.854,14.612 20.278,14.439 19.789,14.076 C18.451,13.084 18.276,11.040 19.398,9.519 C20.522,7.999 22.527,7.569 23.868,8.561 L23.868,8.561 C25.207,9.554 25.382,11.598 24.260,13.119 ZM17.352,9.177 C17.049,9.177 16.744,9.130 16.445,9.031 L16.444,9.031 C14.751,8.467 13.893,6.440 14.533,4.512 C14.836,3.598 15.430,2.836 16.205,2.366 C17.016,1.875 17.925,1.758 18.767,2.038 C19.608,2.318 20.267,2.957 20.622,3.836 C20.962,4.677 20.982,5.643 20.679,6.557 C20.152,8.144 18.770,9.177 17.352,9.177 ZM10.356,8.043 C8.413,8.043 6.831,6.239 6.831,4.022 C6.831,1.804 8.413,-0.000 10.356,-0.000 C12.300,-0.000 13.882,1.804 13.882,4.022 C13.882,6.239 12.300,8.043 10.356,8.043 ZM6.963,9.468 C6.669,10.305 6.081,10.929 5.307,11.227 C4.991,11.349 4.664,11.407 4.338,11.407 C3.061,11.407 1.798,10.519 1.256,9.113 C0.578,7.346 1.291,5.422 2.846,4.823 C3.619,4.525 4.474,4.594 5.252,5.017 C5.992,5.421 6.577,6.102 6.898,6.938 C7.220,7.774 7.243,8.672 6.963,9.468 ZM7.208,11.232 C8.288,9.546 10.127,8.538 12.128,8.538 C14.129,8.538 15.969,9.546 17.048,11.232 L19.651,15.296 C20.082,15.971 20.282,16.750 20.227,17.549 C20.172,18.349 19.868,19.093 19.348,19.702 C18.827,20.311 18.140,20.727 17.360,20.905 C17.085,20.968 16.808,20.999 16.532,20.999 C16.025,20.999 15.522,20.894 15.048,20.685 C13.209,19.875 11.102,19.868 9.258,20.663 L9.209,20.685 C8.476,21.007 7.676,21.084 6.896,20.905 C6.116,20.727 5.428,20.310 4.908,19.702 C4.388,19.092 4.085,18.348 4.030,17.549 C3.975,16.750 4.174,15.971 4.606,15.296 L7.208,11.232 Z"/>
</svg>
